/* XPM */
/* https://wiki.xfce.org/howto/xfwm4_theme */
static const char *fmind_xpm[] = {
"72 72 2 1",
". c #d2e3fc",
"X c #595d62",
"........................................................................",
"........................................................................",
"........................................................................",
"........................................................................",
"........................................................................",
"........................................................................",
"........................................................................",
"........................................................................",
"........................................................................",
"........................................................................",
"........................................................................",
"........................................................................",
"........................................................................",
"........................................................................",
"........................................................................",
"........................................................................",
"........................................................................",
"........................................................................",
"........................................................................",
"........................................................................",
"........................................................................",
"...........................XXXXXXXXXXXXXXXXXXXXX........................",
"...........................XXXXXXXXXXXXXXXXXXXXX........................",
"...........................XXXXXXXXXXXXXXXXXXXXX........................",
"...........................XXX...............XXX........................",
"...........................XXX...............XXX........................",
"...........................XXX...............XXX........................",
".....................XXXXXXXXXXXXXXXXXXXXX...XXX........................",
".....................XXXXXXXXXXXXXXXXXXXXX...XXX........................",
".....................XXXXXXXXXXXXXXXXXXXXX...XXX........................",
".....................XXX...XXX.........XXX...XXX........................",
".....................XXX...XXX.........XXX...XXX........................",
".....................XXX...XXX.........XXX...XXX........................",
".....................XXX...XXXXXXXXXXXXXXX...XXX........................",
".....................XXX...XXXXXXXXXXXXXXX...XXX........................",
".....................XXX...XXXXXXXXXXXXXXX...XXX........................",
".....................XXX...............XXXXXXXXX........................",
".....................XXX...............XXXXXXXXX........................",
".....................XXX...............XXXXXXXXX........................",
".....................XXX...............XXX..............................",
".....................XXX...............XXX..............................",
".....................XXX...............XXX..............................",
".....................XXX...............XXX..............................",
".....................XXX...............XXX..............................",
".....................XXX...............XXX..............................",
".....................XXXXXXXXXXXXXXXXXXXXX..............................",
".....................XXXXXXXXXXXXXXXXXXXXX..............................",
".....................XXXXXXXXXXXXXXXXXXXXX..............................",
"........................................................................",
"........................................................................",
"........................................................................",
"........................................................................",
"........................................................................",
"........................................................................",
"........................................................................",
"........................................................................",
"........................................................................",
"........................................................................",
"........................................................................",
"........................................................................",
"........................................................................",
"........................................................................",
"........................................................................",
"........................................................................",
"........................................................................",
"........................................................................",
"........................................................................",
"........................................................................",
"........................................................................",
"........................................................................",
"........................................................................",
"........................................................................"
};
