/* XPM */
/* https://wiki.xfce.org/howto/xfwm4_theme */
static const char *fmind_xpm[] = {
"72 72 2 1",
". c #f1f3f4",
"X c #202124",
"........................................................................",
"........................................................................",
"........................................................................",
"........................................................................",
"........................................................................",
"........................................................................",
"........................................................................",
"........................................................................",
"........................................................................",
"........................................................................",
"........................................................................",
"........................................................................",
"........................................................................",
"........................................................................",
"........................................................................",
"........................................................................",
"........................................................................",
"........................................................................",
"........................................................................",
"........................................................................",
"........................................................................",
"........................................................................",
"........................................................................",
"........................................................................",
".................................XXX....................................",
".................................XXX....................................",
".................................XXX....................................",
"..............................XXXXXXXXX.................................",
"..............................XXXXXXXXX.................................",
"..............................XXXXXXXXX.................................",
"...........................XXXXXX...XXXXXX..............................",
"...........................XXXXXX...XXXXXX..............................",
"...........................XXXXXX...XXXXXX..............................",
"........................XXXXXX.........XXXXXX...........................",
"........................XXXXXX.........XXXXXX...........................",
"........................XXXXXX.........XXXXXX...........................",
".....................XXXXXX...............XXXXXX........................",
".....................XXXXXX...............XXXXXX........................",
".....................XXXXXX...............XXXXXX........................",
"........................................................................",
"........................................................................",
"........................................................................",
".....................XXXXXXXXXXXXXXXXXXXXXXXXXXX........................",
".....................XXXXXXXXXXXXXXXXXXXXXXXXXXX........................",
".....................XXXXXXXXXXXXXXXXXXXXXXXXXXX........................",
".....................XXXXXXXXXXXXXXXXXXXXXXXXXXX........................",
".....................XXXXXXXXXXXXXXXXXXXXXXXXXXX........................",
".....................XXXXXXXXXXXXXXXXXXXXXXXXXXX........................",
"........................................................................",
"........................................................................",
"........................................................................",
"........................................................................",
"........................................................................",
"........................................................................",
"........................................................................",
"........................................................................",
"........................................................................",
"........................................................................",
"........................................................................",
"........................................................................",
"........................................................................",
"........................................................................",
"........................................................................",
"........................................................................",
"........................................................................",
"........................................................................",
"........................................................................",
"........................................................................",
"........................................................................",
"........................................................................",
"........................................................................",
"........................................................................"
};
