/* XPM */
/* https://wiki.xfce.org/howto/xfwm4_theme */
static const char *fmind_xpm[] = {
"72 72 2 1",
". c #d2e3fc",
"X c #174ea6",
"........................................................................",
"........................................................................",
"........................................................................",
"........................................................................",
"........................................................................",
"........................................................................",
"........................................................................",
"........................................................................",
"........................................................................",
"........................................................................",
"........................................................................",
"........................................................................",
"........................................................................",
"........................................................................",
"........................................................................",
"........................................................................",
"........................................................................",
"........................................................................",
"........................................................................",
"........................................................................",
"........................................................................",
"........................................................................",
"........................................................................",
"........................................................................",
"........................................................................",
"........................................................................",
"........................................................................",
"...........................XXX...............XXX........................",
"...........................XXX...............XXX........................",
"...........................XXX...............XXX........................",
"..............................XXX.........XXX...........................",
"..............................XXX.........XXX...........................",
"..............................XXX.........XXX...........................",
".................................XXX...XXX..............................",
".................................XXX...XXX..............................",
".................................XXX...XXX..............................",
"....................................XXX.................................",
"....................................XXX.................................",
"....................................XXX.................................",
".................................XXX...XXX..............................",
".................................XXX...XXX..............................",
".................................XXX...XXX..............................",
"..............................XXX.........XXX...........................",
"..............................XXX.........XXX...........................",
"..............................XXX.........XXX...........................",
"...........................XXX...............XXX........................",
"...........................XXX...............XXX........................",
"...........................XXX...............XXX........................",
"........................................................................",
"........................................................................",
"........................................................................",
"........................................................................",
"........................................................................",
"........................................................................",
"........................................................................",
"........................................................................",
"........................................................................",
"........................................................................",
"........................................................................",
"........................................................................",
"........................................................................",
"........................................................................",
"........................................................................",
"........................................................................",
"........................................................................",
"........................................................................",
"........................................................................",
"........................................................................",
"........................................................................",
"........................................................................",
"........................................................................",
"........................................................................"
};
