/* XPM */
/* https://wiki.xfce.org/howto/xfwm4_theme */
static const char *fmind_xpm[] = {
"72 72 2 1",
". c #f1f3f4",
"X c #202124",
"........................................................................",
"........................................................................",
"........................................................................",
"........................................................................",
"........................................................................",
"........................................................................",
"........................................................................",
"........................................................................",
"........................................................................",
"........................................................................",
"........................................................................",
"........................................................................",
"........................................................................",
"........................................................................",
"........................................................................",
"........................................................................",
"........................................................................",
"........................................................................",
"........................................................................",
"........................................................................",
"........................................................................",
"...........................XXXXXXXXXXXXXXX..............................",
"...........................XXXXXXXXXXXXXXX..............................",
"...........................XXXXXXXXXXXXXXX..............................",
"...........................XXX.........XXX..............................",
"...........................XXX.........XXX..............................",
"...........................XXX.........XXX..............................",
"...........................XXX.........XXX..............................",
"...........................XXX.........XXX..............................",
"...........................XXX.........XXX..............................",
"........................XXXXXX.........XXXXXX...........................",
"........................XXXXXX.........XXXXXX...........................",
"........................XXXXXX.........XXXXXX...........................",
".....................XXXXXXXXXXXXXXXXXXXXXXXXXXX........................",
".....................XXXXXXXXXXXXXXXXXXXXXXXXXXX........................",
".....................XXXXXXXXXXXXXXXXXXXXXXXXXXX........................",
".................................XXX....................................",
".................................XXX....................................",
".................................XXX....................................",
".................................XXX....................................",
".................................XXX....................................",
".................................XXX....................................",
".................................XXX....................................",
".................................XXX....................................",
".................................XXX....................................",
".................................XXX....................................",
".................................XXX....................................",
".................................XXX....................................",
"........................................................................",
"........................................................................",
"........................................................................",
"........................................................................",
"........................................................................",
"........................................................................",
"........................................................................",
"........................................................................",
"........................................................................",
"........................................................................",
"........................................................................",
"........................................................................",
"........................................................................",
"........................................................................",
"........................................................................",
"........................................................................",
"........................................................................",
"........................................................................",
"........................................................................",
"........................................................................",
"........................................................................",
"........................................................................",
"........................................................................",
"........................................................................"
};
