/* XPM */
/* https://wiki.xfce.org/howto/xfwm4_theme */
static const char *fmind_xpm[] = {
"24 24 2 1",
". c #ffffff",
"X c #a50e0e",
"........................",
"........................",
"........................",
"........................",
"........................",
"........................",
"........................",
".......X.......X........",
"........X.....X.........",
".........X...X..........",
"..........X.X...........",
"...........X............",
"..........X.X...........",
".........X...X..........",
"........X.....X.........",
".......X.......X........",
"........................",
"........................",
"........................",
"........................",
"........................",
"........................",
"........................",
"........................"
};
