/* XPM */
/* https://wiki.xfce.org/howto/xfwm4_theme */
static const char *fmind_xpm[] = {
"24 24 2 1",
". c #ffffff",
"X c #202124",
"........................",
"........................",
"........................",
"........................",
"........................",
"........................",
"........................",
".......XXXXXXXXX........",
".......XXXXXXXXX........",
"........................",
"........................",
".......XXXXXXXXX........",
".......XXXXXXXXX........",
"........................",
".......XXXXXXXXX........",
".......XXXXXXXXX........",
"........................",
"........................",
"........................",
"........................",
"........................",
"........................",
"........................",
"........................"
};
