/* XPM */
/* https://wiki.xfce.org/howto/xfwm4_theme */
static const char *fmind_xpm[] = {
"24 24 2 1",
". c #f1f3f4",
"X c #202124",
"........................",
"........................",
"........................",
"........................",
"........................",
"........................",
"........................",
"........................",
"...........X............",
"..........XXX...........",
".........XX.XX..........",
"........XX...XX.........",
".......XX.....XX........",
"........................",
".......XXXXXXXXX........",
".......XXXXXXXXX........",
"........................",
"........................",
"........................",
"........................",
"........................",
"........................",
"........................",
"........................"
};
