/* XPM */
/* https://wiki.xfce.org/howto/xfwm4_theme */
static const char *fmind_xpm[] = {
"72 72 2 1",
". c #ffffff",
"X c #a50e0e",
"........................................................................",
"........................................................................",
"........................................................................",
"........................................................................",
"........................................................................",
"........................................................................",
"........................................................................",
"........................................................................",
"........................................................................",
"........................................................................",
"........................................................................",
"........................................................................",
"........................................................................",
"........................................................................",
"........................................................................",
"........................................................................",
"........................................................................",
"........................................................................",
"........................................................................",
"........................................................................",
"........................................................................",
".....................XXX.....................XXX........................",
".....................XXX.....................XXX........................",
".....................XXX.....................XXX........................",
"........................XXX...............XXX...........................",
"........................XXX...............XXX...........................",
"........................XXX...............XXX...........................",
"...........................XXX.........XXX..............................",
"...........................XXX.........XXX..............................",
"...........................XXX.........XXX..............................",
"..............................XXX...XXX.................................",
"..............................XXX...XXX.................................",
"..............................XXX...XXX.................................",
".................................XXX....................................",
".................................XXX....................................",
".................................XXX....................................",
"..............................XXX...XXX.................................",
"..............................XXX...XXX.................................",
"..............................XXX...XXX.................................",
"...........................XXX.........XXX..............................",
"...........................XXX.........XXX..............................",
"...........................XXX.........XXX..............................",
"........................XXX...............XXX...........................",
"........................XXX...............XXX...........................",
"........................XXX...............XXX...........................",
".....................XXX.....................XXX........................",
".....................XXX.....................XXX........................",
".....................XXX.....................XXX........................",
"........................................................................",
"........................................................................",
"........................................................................",
"........................................................................",
"........................................................................",
"........................................................................",
"........................................................................",
"........................................................................",
"........................................................................",
"........................................................................",
"........................................................................",
"........................................................................",
"........................................................................",
"........................................................................",
"........................................................................",
"........................................................................",
"........................................................................",
"........................................................................",
"........................................................................",
"........................................................................",
"........................................................................",
"........................................................................",
"........................................................................",
"........................................................................"
};
