/* XPM */
/* https://wiki.xfce.org/howto/xfwm4_theme */
static const char *fmind_xpm[] = {
"48 48 2 1",
". c #ffffff",
"X c #a50e0e",
"................................................",
"................................................",
"................................................",
"................................................",
"................................................",
"................................................",
"................................................",
"................................................",
"................................................",
"................................................",
"................................................",
"................................................",
"................................................",
"................................................",
"..............XX..............XX................",
"..............XX..............XX................",
"................XX..........XX..................",
"................XX..........XX..................",
"..................XX......XX....................",
"..................XX......XX....................",
"....................XX..XX......................",
"....................XX..XX......................",
"......................XX........................",
"......................XX........................",
"....................XX..XX......................",
"....................XX..XX......................",
"..................XX......XX....................",
"..................XX......XX....................",
"................XX..........XX..................",
"................XX..........XX..................",
"..............XX..............XX................",
"..............XX..............XX................",
"................................................",
"................................................",
"................................................",
"................................................",
"................................................",
"................................................",
"................................................",
"................................................",
"................................................",
"................................................",
"................................................",
"................................................",
"................................................",
"................................................",
"................................................",
"................................................"
};
