/* XPM */
/* https://wiki.xfce.org/howto/xfwm4_theme */
static const char *fmind_xpm[] = {
"48 48 2 1",
". c #d2e3fc",
"X c #202124",
"................................................",
"................................................",
"................................................",
"................................................",
"................................................",
"................................................",
"................................................",
"................................................",
"................................................",
"................................................",
"................................................",
"................................................",
"................................................",
"................................................",
"................................................",
"................................................",
"................................................",
"................................................",
"................................................",
"................................................",
"................................................",
"................................................",
"................................................",
"................................................",
"................................................",
"................................................",
"................................................",
"................................................",
"................................................",
"................................................",
"................XXXXXXXXXXXXXXXXXX..............",
"................XXXXXXXXXXXXXXXXXX..............",
"................XXXXXXXXXXXXXXXXXX..............",
"................XXXXXXXXXXXXXXXXXX..............",
"................................................",
"................................................",
"................................................",
"................................................",
"................................................",
"................................................",
"................................................",
"................................................",
"................................................",
"................................................",
"................................................",
"................................................",
"................................................",
"................................................"
};
