/* XPM */
/* https://wiki.xfce.org/howto/xfwm4_theme */
static const char *fmind_xpm[] = {
"48 48 2 1",
". c #d2e3fc",
"X c #174ea6",
"................................................",
"................................................",
"................................................",
"................................................",
"................................................",
"................................................",
"................................................",
"................................................",
"................................................",
"................................................",
"................................................",
"................................................",
"................................................",
"................................................",
"................................................",
"................................................",
"....................XXXXXXXXXXXXXX..............",
"....................XXXXXXXXXXXXXX..............",
"....................XX..........XX..............",
"....................XX..........XX..............",
"................XXXXXXXXXXXXXX..XX..............",
"................XXXXXXXXXXXXXX..XX..............",
"................XX..XX......XX..XX..............",
"................XX..XX......XX..XX..............",
"................XX..XXXXXXXXXX..XX..............",
"................XX..XXXXXXXXXX..XX..............",
"................XX..........XXXXXX..............",
"................XX..........XXXXXX..............",
"................XX..........XX..................",
"................XX..........XX..................",
"................XX..........XX..................",
"................XX..........XX..................",
"................XXXXXXXXXXXXXX..................",
"................XXXXXXXXXXXXXX..................",
"................................................",
"................................................",
"................................................",
"................................................",
"................................................",
"................................................",
"................................................",
"................................................",
"................................................",
"................................................",
"................................................",
"................................................",
"................................................",
"................................................"
};
