/* XPM */
/* https://wiki.xfce.org/howto/xfwm4_theme */
static const char *fmind_xpm[] = {
"48 48 2 1",
". c #ffffff",
"X c #595d62",
"................................................",
"................................................",
"................................................",
"................................................",
"................................................",
"................................................",
"................................................",
"................................................",
"................................................",
"................................................",
"................................................",
"................................................",
"................................................",
"................................................",
"..................XXXXXXXXXX....................",
"..................XXXXXXXXXX....................",
"..................XX......XX....................",
"..................XX......XX....................",
"..................XX......XX....................",
"..................XX......XX....................",
"................XXXX......XXXX..................",
"................XXXX......XXXX..................",
"..............XXXXXXXXXXXXXXXXXX................",
"..............XXXXXXXXXXXXXXXXXX................",
"......................XX........................",
"......................XX........................",
"......................XX........................",
"......................XX........................",
"......................XX........................",
"......................XX........................",
"......................XX........................",
"......................XX........................",
"................................................",
"................................................",
"................................................",
"................................................",
"................................................",
"................................................",
"................................................",
"................................................",
"................................................",
"................................................",
"................................................",
"................................................",
"................................................",
"................................................",
"................................................",
"................................................"
};
