/* XPM */
/* https://wiki.xfce.org/howto/xfwm4_theme */
static const char *fmind_xpm[] = {
"8 60 2 1",
". c #ffffff",
"| c #9aa0a6",
"||||||||",
"||||||||",
"......||",
"......||",
"......||",
"......||",
"......||",
"......||",
"......||",
"......||",
"......||",
"......||",
"......||",
"......||",
"......||",
"......||",
"......||",
"......||",
"......||",
"......||",
"......||",
"......||",
"......||",
"......||",
"......||",
"......||",
"......||",
"......||",
"......||",
"......||",
"......||",
"......||",
"......||",
"......||",
"......||",
"......||",
"......||",
"......||",
"......||",
"......||",
"......||",
"......||",
"......||",
"......||",
"......||",
"......||",
"......||",
"......||",
"......||",
"......||",
"......||",
"......||",
"......||",
"......||",
"......||",
"......||",
"......||",
"......||",
"......||",
"......||"
};
