/* XPM */
/* https://wiki.xfce.org/howto/xfwm4_theme */
static const char *fmind_xpm[] = {
"24 24 2 1",
". c #d2e3fc",
"X c #595d62",
"........................",
"........................",
"........................",
"........................",
"........................",
"........................",
"........................",
".........XXXXXXX........",
".........X.....X........",
".......XXXXXXX.X........",
".......X.X...X.X........",
".......X.XXXXX.X........",
".......X.....XXX........",
".......X.....X..........",
".......X.....X..........",
".......XXXXXXX..........",
"........................",
"........................",
"........................",
"........................",
"........................",
"........................",
"........................",
"........................"
};
