/* XPM */
/* https://wiki.xfce.org/howto/xfwm4_theme */
static const char *fmind_xpm[] = {
"48 48 2 1",
". c #ffffff",
"X c #202124",
"................................................",
"................................................",
"................................................",
"................................................",
"................................................",
"................................................",
"................................................",
"................................................",
"................................................",
"................................................",
"................................................",
"................................................",
"................................................",
"................................................",
"................................................",
"................................................",
"......................XX........................",
"......................XX........................",
"....................XXXXXX......................",
"....................XXXXXX......................",
"..................XXXX..XXXX....................",
"..................XXXX..XXXX....................",
"................XXXX......XXXX..................",
"................XXXX......XXXX..................",
"..............XXXX..........XXXX................",
"..............XXXX..........XXXX................",
"................................................",
"................................................",
"..............XXXXXXXXXXXXXXXXXX................",
"..............XXXXXXXXXXXXXXXXXX................",
"..............XXXXXXXXXXXXXXXXXX................",
"..............XXXXXXXXXXXXXXXXXX................",
"................................................",
"................................................",
"................................................",
"................................................",
"................................................",
"................................................",
"................................................",
"................................................",
"................................................",
"................................................",
"................................................",
"................................................",
"................................................",
"................................................",
"................................................",
"................................................"
};
